MosLight/gtk-3.0/assets/checkbox-unchecked-insensitive.svg

<?xml version="1.0" encoding="UTF-8" standalone="no"?>
<svg
   xmlns:dc="http://purl.org/dc/elements/1.1/"
   xmlns:cc="http://creativecommons.org/ns#"
   xmlns:rdf="http://www.w3.org/1999/02/22-rdf-syntax-ns#"
   xmlns:svg="http://www.w3.org/2000/svg"
   xmlns="http://www.w3.org/2000/svg"
   xmlns:sodipodi="http://sodipodi.sourceforge.net/DTD/sodipodi-0.dtd"
   xmlns:inkscape="http://www.inkscape.org/namespaces/inkscape"
   viewBox="0 0 16 16"
   id="svg2"
   version="1.1"
   inkscape:version="0.48.4 r9939"
   width="100%"
   height="100%"
   sodipodi:docname="checkbox-unchecked-insensitive.svg">
  <metadata
     id="metadata14">
    <rdf:RDF>
      <cc:Work
         rdf:about="">
        <dc:format>image/svg+xml</dc:format>
        <dc:type
           rdf:resource="http://purl.org/dc/dcmitype/StillImage" />
      </cc:Work>
    </rdf:RDF>
  </metadata>
  <defs
     id="defs12" />
  <sodipodi:namedview
     pagecolor="#ffffff"
     bordercolor="#666666"
     borderopacity="1"
     objecttolerance="10"
     gridtolerance="10"
     guidetolerance="10"
     inkscape:pageopacity="0"
     inkscape:pageshadow="2"
     inkscape:window-width="640"
     inkscape:window-height="480"
     id="namedview10"
     showgrid="false"
     inkscape:zoom="16.875"
     inkscape:cx="8"
     inkscape:cy="8"
     inkscape:window-x="0"
     inkscape:window-y="25"
     inkscape:window-maximized="0"
     inkscape:current-layer="svg2" />
  <path
     inkscape:connector-curvature="0"
     id="path6"
     d="m 1.6707985,0.6212 12.5952685,0 c 0.581481,0 1.049606,0.4621 1.049606,1.0361 l 0,12.4328 c 0,0.574 -0.468125,1.0362 -1.049606,1.0362 l -12.5952685,0 c -0.5814816,0 -1.0496057,-0.4622 -1.0496057,-1.0362 l 0,-12.4328 c 0,-0.574 0.4681241,-1.0361 1.0496057,-1.0361 z"
     style="fill:#cccccc" />
  <path
     inkscape:connector-curvature="0"
     id="path8"
     d="M 2,0 C 0.892,0 0,0.892 0,2 l 0,12 c 0,1.108 0.892,2 2,2 l 12,0 c 1.108,0 2,-0.892 2,-2 L 16,2 C 16,0.892 15.108,0 14,0 L 2,0 z m 0,1 12,0 c 0.554,0 1,0.446 1,1 l 0,12 c 0,0.554 -0.446,1 -1,1 L 2,15 C 1.446,15 1,14.554 1,14 L 1,2 C 1,1.446 1.446,1 2,1 z"
     style="fill:#aaaaaa" />
</svg>

<svg xmlns="http://www.w3.org/2000/svg" viewBox="0 0 16 16" xmlns:xlink="http://www.w3.org/1999/xlink">
<g transform="translate(0 -1036.3622)">
<path style="fill:#d3d3d3" d="m 1.6707985,1036.9834 12.5952685,0 c 0.581481,0 1.049606,0.4621 1.049606,1.0361 l 0,12.4328 c 0,0.574 -0.468125,1.0362 -1.049606,1.0362 l -12.5952685,0 c -0.5814816,0 -1.0496057,-0.4622 -1.0496057,-1.0362 l 0,-12.4328 c 0,-0.574 0.4681241,-1.0361 1.0496057,-1.0361 z"/>
<path style="fill:#aaa" d="M 2 0 C 0.892 0 3.2526065e-18 0.892 0 2 L 0 14 C 0 15.108 0.892 16 2 16 L 14 16 C 15.108 16 16 15.108 16 14 L 16 2 C 16 0.892 15.108 3.2526065e-18 14 0 L 2 0 z M 2 1 L 14 1 C 14.554 1 15 1.446 15 2 L 15 14 C 15 14.554 14.554 15 14 15 L 2 15 C 1.446 15 1 14.554 1 14 L 1 2 C 1 1.446 1.446 1 2 1 z " transform="translate(0 1036.3622)"/>
</g>
</svg>
